;FLAVOR:Marlin
;TIME:5348
;Filament used: 10.0434m
;Layer height: 0.4
;MINX:-51.05
;MINY:-25.85
;MINZ:0.21
;MAXX:51.05
;MAXY:25.85
;MAXZ:35.81
;Generated with Cura_SteamEngine 4.8.0
M140 S45
M105
M190 S45
M104 S205
M105
M109 S205
M82 ;absolute extrusion mode
;MPMD Basic Calibration Tutorial: 
; https://www.thingiverse.com/thing:3892011 
; 
; If you want to put calibration values in your 
; Start Gcode, put them here. 
; 
;If on stock firmware, at minimum, consider adding 
;M665 R here since there is a firmware bug.  
; 
; Calibration part ends here 
; 
G90 ; switch to absolute positioning 
G92 E0 ; reset extrusion distance 
G1 E20 F200 ; purge 20mm of filament to prime nozzle. 
G92 E0 ; reset extrusion distance 
G4 S5 ; Pause for 5 seconds to allow time for removing extruded filament 
G28 ; start from home position 
G1 E-6 F900 ; retract 6mm of filament before starting the bed leveling process 
G92 E0 ; reset extrusion distance 
G4 S5 ; pause for 5 seconds to allow time for removing extruded filament 
G29 P2 Z0.28 ; Auto-level ; ADJUST Z higher or lower to set first layer height. Start with 0.02 adjustments. 
G1 Z30 ; raise Z 30mm to prepare for priming the nozzle 
G1 E5 F200 ; extrude 5mm of filament to help prime the nozzle just prior to the start of the print 
G92 E0 ; reset extrusion distance 
G4 S5 ; pause for 5 seconds to allow time for cleaning the nozzle and build plate if needed 
G92 E0
G92 E0
G1 F3000 E-4
;LAYER_COUNT:90
;LAYER:0
M107
G0 F3600 X43.072 Y25.85 Z0.21
;TYPE:SKIRT
G1 F3000 E0
G1 F1800 X-43.072 Y25.85 E2.63237
G1 X-43.864 Y25.81 E2.6566
G1 X-44.649 Y25.691 E2.68086
G1 X-45.417 Y25.493 E2.7051
G1 X-46.162 Y25.218 E2.72936
G1 X-46.875 Y24.871 E2.75359
G1 X-47.55 Y24.453 E2.77786
G1 X-48.179 Y23.97 E2.80209
G1 X-48.64 Y23.543 E2.82129
G1 X-48.743 Y23.44 E2.82574
G1 X-49.276 Y22.852 E2.84999
G1 X-49.746 Y22.213 E2.87423
G1 X-50.149 Y21.529 E2.89849
G1 X-50.482 Y20.809 E2.92273
G1 X-50.74 Y20.059 E2.94697
G1 X-50.922 Y19.286 E2.97124
G1 X-51.025 Y18.5 E2.99546
G1 X-51.05 Y17.872 E3.01467
G1 X-51.05 Y-17.872 E4.10692
G1 X-51.01 Y-18.664 E4.13116
G1 X-50.891 Y-19.449 E4.15542
G1 X-50.693 Y-20.217 E4.17965
G1 X-50.418 Y-20.962 E4.20392
G1 X-50.071 Y-21.675 E4.22815
G1 X-49.653 Y-22.35 E4.25241
G1 X-49.17 Y-22.979 E4.27665
G1 X-48.743 Y-23.44 E4.29585
G1 X-48.64 Y-23.543 E4.3003
G1 X-48.052 Y-24.076 E4.32455
G1 X-47.413 Y-24.546 E4.34879
G1 X-46.729 Y-24.949 E4.37305
G1 X-46.009 Y-25.282 E4.39729
G1 X-45.259 Y-25.54 E4.42153
G1 X-44.486 Y-25.722 E4.44579
G1 X-43.7 Y-25.825 E4.47002
G1 X-43.072 Y-25.85 E4.48922
G1 X43.072 Y-25.85 E7.12159
G1 X43.864 Y-25.81 E7.14582
G1 X44.649 Y-25.691 E7.17008
G1 X45.417 Y-25.493 E7.19432
G1 X46.162 Y-25.218 E7.21859
G1 X46.875 Y-24.871 E7.24282
G1 X47.55 Y-24.453 E7.26708
G1 X48.179 Y-23.97 E7.29131
G1 X48.64 Y-23.543 E7.31051
G1 X48.743 Y-23.44 E7.31496
G1 X49.276 Y-22.852 E7.33922
G1 X49.746 Y-22.213 E7.36346
G1 X50.149 Y-21.529 E7.38772
G1 X50.482 Y-20.809 E7.41196
G1 X50.74 Y-20.059 E7.43619
G1 X50.922 Y-19.286 E7.46046
G1 X51.025 Y-18.5 E7.48468
G1 X51.05 Y-17.872 E7.50389
G1 X51.05 Y17.872 E8.59614
G1 X51.01 Y18.664 E8.62038
G1 X50.891 Y19.449 E8.64464
G1 X50.693 Y20.217 E8.66887
G1 X50.418 Y20.962 E8.69314
G1 X50.071 Y21.675 E8.71737
G1 X49.653 Y22.35 E8.74163
G1 X49.17 Y22.979 E8.76587
G1 X48.743 Y23.44 E8.78507
G1 X48.64 Y23.543 E8.78952
G1 X48.052 Y24.076 E8.81377
G1 X47.413 Y24.546 E8.83801
G1 X46.729 Y24.949 E8.86227
G1 X46.009 Y25.282 E8.88651
G1 X45.259 Y25.54 E8.91075
G1 X44.486 Y25.722 E8.93502
G1 X43.938 Y25.794 E8.9519
G0 F1620 X43.7 Y25.825
G0 X43.072 Y25.85
G0 F3600 X43.072 Y25.5
G1 F1800 X-43.072 Y25.5 E11.58427
G1 X-43.847 Y25.46 E11.60799
G1 X-44.613 Y25.341 E11.63167
G1 X-45.363 Y25.143 E11.65538
G1 X-46.089 Y24.869 E11.67909
G1 X-46.782 Y24.522 E11.70277
G1 X-47.436 Y24.105 E11.72647
G1 X-48.044 Y23.623 E11.75018
G1 X-48.496 Y23.193 E11.76925
G1 X-49.015 Y22.617 E11.79294
G1 X-49.473 Y21.991 E11.81664
G1 X-49.863 Y21.32 E11.84036
G1 X-50.183 Y20.614 E11.86404
G1 X-50.428 Y19.878 E11.88775
G1 X-50.596 Y19.12 E11.91147
G1 X-50.685 Y18.35 E11.93516
G1 X-50.7 Y17.872 E11.94977
G1 X-50.7 Y-17.872 E13.04203
G1 X-50.66 Y-18.647 E13.06574
G1 X-50.541 Y-19.413 E13.08943
G1 X-50.343 Y-20.163 E13.11313
G1 X-50.069 Y-20.889 E13.13685
G1 X-49.722 Y-21.582 E13.16053
G1 X-49.305 Y-22.236 E13.18423
G1 X-48.823 Y-22.844 E13.20794
G1 X-48.393 Y-23.296 E13.227
G1 X-47.817 Y-23.815 E13.2507
G1 X-47.191 Y-24.273 E13.2744
G1 X-46.52 Y-24.663 E13.29811
G1 X-45.814 Y-24.983 E13.3218
G1 X-45.078 Y-25.228 E13.3455
G1 X-44.32 Y-25.396 E13.36923
G1 X-43.55 Y-25.485 E13.39292
G1 X-43.072 Y-25.5 E13.40753
G1 X43.072 Y-25.5 E16.0399
G1 X43.847 Y-25.46 E16.06361
G1 X44.613 Y-25.341 E16.0873
G1 X45.363 Y-25.143 E16.111
G1 X46.089 Y-24.869 E16.13471
G1 X46.782 Y-24.522 E16.1584
G1 X47.436 Y-24.105 E16.1821
G1 X48.044 Y-23.623 E16.20581
G1 X48.496 Y-23.193 E16.22487
G1 X49.015 Y-22.617 E16.24856
G1 X49.473 Y-21.991 E16.27227
G1 X49.863 Y-21.32 E16.29598
G1 X50.183 Y-20.614 E16.31967
G1 X50.428 Y-19.878 E16.34337
G1 X50.596 Y-19.12 E16.3671
G1 X50.685 Y-18.35 E16.39078
G1 X50.7 Y-17.872 E16.4054
G1 X50.7 Y17.872 E17.49765
G1 X50.66 Y18.647 E17.52137
G1 X50.541 Y19.413 E17.54505
G1 X50.343 Y20.163 E17.56876
G1 X50.069 Y20.889 E17.59247
G1 X49.722 Y21.582 E17.61615
G1 X49.305 Y22.236 E17.63985
G1 X48.823 Y22.844 E17.66356
G1 X48.393 Y23.296 E17.68263
G1 X47.817 Y23.815 E17.70632
G1 X47.191 Y24.273 E17.73002
G1 X46.52 Y24.663 E17.75374
G1 X45.814 Y24.983 E17.77742
G1 X45.078 Y25.228 E17.80113
G1 X44.32 Y25.396 E17.82485
G1 X43.937 Y25.441 E17.83664
G0 F1620 X43.55 Y25.485
G0 X43.072 Y25.5
G0 F3600 X43.072 Y25.15
G1 F1800 X-43.072 Y25.15 E20.469
G1 X-43.828 Y25.11 E20.49214
G1 X-44.576 Y24.991 E20.51528
G1 X-45.307 Y24.793 E20.53843
G1 X-46.014 Y24.519 E20.5616
G1 X-46.687 Y24.173 E20.58472
G1 X-47.32 Y23.757 E20.60787
G1 X-48.145 Y23.048 E20.64111
G1 X-48.248 Y22.945 E20.64556
G1 X-48.755 Y22.382 E20.66871
G1 X-49.199 Y21.769 E20.69184
G1 X-49.577 Y21.112 E20.715
G1 X-49.883 Y20.42 E20.73812
G1 X-50.114 Y19.698 E20.76129
G1 X-50.268 Y18.957 E20.78441
G1 X-50.35 Y17.872 E20.81766
G1 X-50.35 Y-17.872 E21.90992
G1 X-50.31 Y-18.628 E21.93305
G1 X-50.191 Y-19.376 E21.9562
G1 X-49.993 Y-20.107 E21.97934
G1 X-49.719 Y-20.814 E22.00251
G1 X-49.373 Y-21.487 E22.02564
G1 X-48.957 Y-22.12 E22.04878
G1 X-48.248 Y-22.945 E22.08202
G1 X-48.145 Y-23.048 E22.08647
G1 X-47.582 Y-23.555 E22.10963
G1 X-46.969 Y-23.999 E22.13275
G1 X-46.312 Y-24.377 E22.15592
G1 X-45.62 Y-24.683 E22.17904
G1 X-44.898 Y-24.914 E22.2022
G1 X-44.157 Y-25.068 E22.22533
G1 X-43.072 Y-25.15 E22.25858
G1 X43.072 Y-25.15 E24.89095
G1 X43.828 Y-25.11 E24.91408
G1 X44.576 Y-24.991 E24.93722
G1 X45.307 Y-24.793 E24.96037
G1 X46.014 Y-24.519 E24.98354
G1 X46.687 Y-24.173 E25.00666
G1 X47.32 Y-23.757 E25.02981
G1 X48.145 Y-23.048 E25.06305
G1 X48.248 Y-22.945 E25.0675
G1 X48.755 Y-22.382 E25.09065
G1 X49.199 Y-21.769 E25.11378
G1 X49.577 Y-21.112 E25.13694
G1 X49.883 Y-20.42 E25.16006
G1 X50.114 Y-19.698 E25.18323
G1 X50.268 Y-18.957 E25.20635
G1 X50.35 Y-17.872 E25.2396
G1 X50.35 Y17.872 E26.33186
G1 X50.31 Y18.628 E26.35499
G1 X50.191 Y19.376 E26.37814
G1 X49.993 Y20.107 E26.40128
G1 X49.719 Y20.814 E26.42445
G1 X49.373 Y21.487 E26.44758
G1 X48.957 Y22.12 E26.47072
G1 X48.248 Y22.945 E26.50396
G1 X48.145 Y23.048 E26.50841
G1 X47.582 Y23.555 E26.53157
G1 X46.969 Y23.999 E26.5547
G1 X46.312 Y24.377 E26.57786
G1 X45.62 Y24.683 E26.60098
G1 X44.898 Y24.914 E26.62414
G1 X44.157 Y25.068 E26.64727
G1 X43.937 Y25.085 E26.65401
G0 F1620 X43.072 Y25.15
G0 F3600 X43.072 Y24.8
G1 F1800 X-43.072 Y24.8 E29.28638
G1 X-43.81 Y24.76 E29.30896
G1 X-44.538 Y24.641 E29.33151
G1 X-45.25 Y24.443 E29.35409
G1 X-45.936 Y24.17 E29.37665
G1 X-46.589 Y23.824 E29.39923
G1 X-47.201 Y23.41 E29.42181
G1 X-47.898 Y22.801 E29.45009
G1 X-48.001 Y22.698 E29.45455
G1 X-48.494 Y22.148 E29.47712
G1 X-48.925 Y21.548 E29.49969
G1 X-49.289 Y20.905 E29.52227
G1 X-49.581 Y20.227 E29.54483
G1 X-49.798 Y19.521 E29.5674
G1 X-49.937 Y18.795 E29.58998
G1 X-50 Y17.872 E29.61826
G1 X-50 Y-17.872 E30.71051
G1 X-49.96 Y-18.61 E30.7331
G1 X-49.841 Y-19.338 E30.75564
G1 X-49.643 Y-20.05 E30.77822
G1 X-49.37 Y-20.736 E30.80078
G1 X-49.024 Y-21.389 E30.82336
G1 X-48.61 Y-22.001 E30.84594
G1 X-48.001 Y-22.698 E30.87423
G1 X-47.898 Y-22.801 E30.87868
G1 X-47.348 Y-23.294 E30.90125
G1 X-46.748 Y-23.725 E30.92382
G1 X-46.105 Y-24.089 E30.9464
G1 X-45.427 Y-24.381 E30.96896
G1 X-44.721 Y-24.598 E30.99153
G1 X-43.995 Y-24.737 E31.01412
G1 X-43.072 Y-24.8 E31.04239
G1 X43.072 Y-24.8 E33.67475
G1 X43.81 Y-24.76 E33.69734
G1 X44.538 Y-24.641 E33.71988
G1 X45.25 Y-24.443 E33.74246
G1 X45.936 Y-24.17 E33.76502
G1 X46.589 Y-23.824 E33.78761
G1 X47.201 Y-23.41 E33.81018
G1 X47.898 Y-22.801 E33.83847
G1 X48.001 Y-22.698 E33.84292
G1 X48.494 Y-22.148 E33.86549
G1 X48.925 Y-21.548 E33.88806
G1 X49.289 Y-20.905 E33.91064
G1 X49.581 Y-20.227 E33.9332
G1 X49.798 Y-19.521 E33.95577
G1 X49.937 Y-18.795 E33.97836
G1 X50 Y-17.872 E34.00663
G1 X50 Y17.872 E35.09888
G1 X49.96 Y18.61 E35.12147
G1 X49.841 Y19.338 E35.14401
G1 X49.643 Y20.05 E35.16659
G1 X49.37 Y20.736 E35.18916
G1 X49.024 Y21.389 E35.21174
G1 X48.61 Y22.001 E35.23432
G1 X48.001 Y22.698 E35.2626
G1 X47.898 Y22.801 E35.26705
G1 X47.348 Y23.294 E35.28962
G1 X46.748 Y23.725 E35.3122
G1 X46.105 Y24.089 E35.33477
G1 X45.427 Y24.381 E35.35733
G1 X44.721 Y24.598 E35.3799
G1 X43.995 Y24.737 E35.40249
G1 X43.938 Y24.741 E35.40424
G0 F1620 X43.072 Y24.8
G0 F3600 X43.072 Y24.45
G1 F1800 X-43.072 Y24.45 E38.0366
G1 X-43.79 Y24.41 E38.05858
G1 X-44.5 Y24.291 E38.08058
G1 X-45.192 Y24.093 E38.10257
G1 X-45.857 Y23.82 E38.12454
G1 X-46.489 Y23.475 E38.14654
G1 X-47.078 Y23.062 E38.16852
G1 X-47.651 Y22.554 E38.19192
G1 X-47.754 Y22.451 E38.19637
G1 X-48.233 Y21.914 E38.21836
G1 X-48.65 Y21.328 E38.24034
G1 X-49 Y20.699 E38.26234
G1 X-49.278 Y20.036 E38.2843
G1 X-49.48 Y19.345 E38.3063
G1 X-49.605 Y18.637 E38.32827
G1 X-49.65 Y17.872 E38.35169
G1 X-49.65 Y-17.872 E39.44395
G1 X-49.61 Y-18.59 E39.46592
G1 X-49.491 Y-19.3 E39.48792
G1 X-49.293 Y-19.992 E39.50991
G1 X-49.02 Y-20.657 E39.53188
G1 X-48.675 Y-21.289 E39.55388
G1 X-48.262 Y-21.878 E39.57587
G1 X-47.754 Y-22.451 E39.59927
G1 X-47.651 Y-22.554 E39.60372
G1 X-47.114 Y-23.033 E39.62571
G1 X-46.528 Y-23.45 E39.64768
G1 X-45.899 Y-23.8 E39.66968
G1 X-45.236 Y-24.078 E39.69165
G1 X-44.545 Y-24.28 E39.71365
G1 X-43.837 Y-24.405 E39.73562
G1 X-43.072 Y-24.45 E39.75903
G1 X43.072 Y-24.45 E42.3914
G1 X43.79 Y-24.41 E42.41338
G1 X44.5 Y-24.291 E42.43537
G1 X45.192 Y-24.093 E42.45737
G1 X45.857 Y-23.82 E42.47934
G1 X46.489 Y-23.475 E42.50134
G1 X47.078 Y-23.062 E42.52332
G1 X47.651 Y-22.554 E42.54672
G1 X47.754 Y-22.451 E42.55117
G1 X48.233 Y-21.914 E42.57316
G1 X48.65 Y-21.328 E42.59514
G1 X49 Y-20.699 E42.61713
G1 X49.278 Y-20.036 E42.6391
G1 X49.48 Y-19.345 E42.6611
G1 X49.605 Y-18.637 E42.68307
G1 X49.65 Y-17.872 E42.70649
G1 X49.65 Y17.872 E43.79875
G1 X49.61 Y18.59 E43.82072
G1 X49.491 Y19.3 E43.84272
G1 X49.293 Y19.992 E43.86471
G1 X49.02 Y20.657 E43.88668
G1 X48.675 Y21.289 E43.90868
G1 X48.262 Y21.878 E43.93066
G1 X47.754 Y22.451 E43.95406
G1 X47.651 Y22.554 E43.95852
G1 X47.114 Y23.033 E43.9805
G1 X46.528 Y23.45 E44.00248
G1 X45.899 Y23.8 E44.02448
G1 X45.236 Y24.078 E44.04645
G1 X44.545 Y24.28 E44.06845
G1 X43.937 Y24.388 E44.08732
G0 F1620 X43.837 Y24.405
G0 X43.072 Y24.45
G0 F3600 X43.072 Y24.1
G1 F1800 X-43.072 Y24.1 E46.71968
G1 X-43.771 Y24.06 E46.74108
G1 X-44.46 Y23.941 E46.76244
G1 X-45.131 Y23.743 E46.78382
G1 X-45.776 Y23.471 E46.80521
G1 X-46.385 Y23.127 E46.82659
G1 X-46.951 Y22.715 E46.84798
G1 X-47.403 Y22.306 E46.86661
G1 X-47.506 Y22.203 E46.87106
G1 X-47.972 Y21.681 E46.89244
G1 X-48.375 Y21.109 E46.91382
G1 X-48.71 Y20.495 E46.93519
G1 X-48.973 Y19.846 E46.95659
G1 X-49.16 Y19.172 E46.97797
G1 X-49.27 Y18.481 E46.99935
G1 X-49.3 Y17.872 E47.01798
G1 X-49.3 Y-17.872 E48.11024
G1 X-49.26 Y-18.571 E48.13163
G1 X-49.141 Y-19.26 E48.153
G1 X-48.943 Y-19.931 E48.17438
G1 X-48.671 Y-20.576 E48.19577
G1 X-48.327 Y-21.185 E48.21714
G1 X-47.915 Y-21.751 E48.23853
G1 X-47.506 Y-22.203 E48.25716
G1 X-47.403 Y-22.306 E48.26161
G1 X-46.881 Y-22.772 E48.28299
G1 X-46.309 Y-23.175 E48.30438
G1 X-45.695 Y-23.51 E48.32575
G1 X-45.046 Y-23.773 E48.34715
G1 X-44.372 Y-23.96 E48.36852
G1 X-43.681 Y-24.07 E48.3899
G1 X-43.072 Y-24.1 E48.40853
G1 X43.072 Y-24.1 E51.0409
G1 X43.771 Y-24.06 E51.0623
G1 X44.46 Y-23.941 E51.08366
G1 X45.131 Y-23.743 E51.10504
G1 X45.776 Y-23.471 E51.12643
G1 X46.385 Y-23.127 E51.1478
G1 X46.951 Y-22.715 E51.1692
G1 X47.403 Y-22.306 E51.18782
G1 X47.506 Y-22.203 E51.19228
G1 X47.972 Y-21.681 E51.21366
G1 X48.375 Y-21.109 E51.23504
G1 X48.71 Y-20.495 E51.25641
G1 X48.973 Y-19.846 E51.27781
G1 X49.16 Y-19.172 E51.29919
G1 X49.27 Y-18.481 E51.32057
G1 X49.3 Y-17.872 E51.3392
G1 X49.3 Y17.872 E52.43146
G1 X49.26 Y18.571 E52.45285
G1 X49.141 Y19.26 E52.47422
G1 X48.943 Y19.931 E52.49559
G1 X48.671 Y20.576 E52.51698
G1 X48.327 Y21.185 E52.53836
G1 X47.915 Y21.751 E52.55975
G1 X47.506 Y22.203 E52.57838
G1 X47.403 Y22.306 E52.58283
G1 X46.881 Y22.772 E52.60421
G1 X46.309 Y23.175 E52.62559
G1 X45.695 Y23.51 E52.64697
G1 X45.046 Y23.773 E52.66837
G1 X44.372 Y23.96 E52.68974
G1 X43.937 Y24.03 E52.7032
G0 F1620 X43.681 Y24.07
G0 X43.072 Y24.1
G0 F3600 X43.072 Y23.75
G1 F1800 X-43.072 Y23.75 E55.33557
G1 X-43.75 Y23.71 E55.35632
G1 X-44.419 Y23.591 E55.37709
G1 X-45.069 Y23.394 E55.39784
G1 X-45.692 Y23.122 E55.41862
G1 X-46.278 Y22.778 E55.43938
G1 X-46.82 Y22.368 E55.46015
G1 X-47.259 Y21.956 E55.47854
G1 X-47.71 Y21.448 E55.4993
G1 X-48.098 Y20.89 E55.52007
G1 X-48.419 Y20.291 E55.54084
G1 X-48.667 Y19.659 E55.56158
G1 X-48.839 Y19.001 E55.58237
G1 X-48.932 Y18.328 E55.60313
G1 X-48.95 Y17.872 E55.61707
G1 X-48.95 Y-17.872 E56.70933
G1 X-48.91 Y-18.55 E56.73008
G1 X-48.791 Y-19.219 E56.75085
G1 X-48.594 Y-19.869 E56.7716
G1 X-48.322 Y-20.492 E56.79237
G1 X-47.978 Y-21.078 E56.81314
G1 X-47.568 Y-21.62 E56.83391
G1 X-47.156 Y-22.059 E56.8523
G1 X-46.648 Y-22.51 E56.87306
G1 X-46.09 Y-22.898 E56.89383
G1 X-45.491 Y-23.219 E56.9146
G1 X-44.859 Y-23.467 E56.93534
G1 X-44.201 Y-23.639 E56.95612
G1 X-43.528 Y-23.732 E56.97689
G1 X-43.072 Y-23.75 E56.99083
G1 X43.072 Y-23.75 E59.6232
G1 X43.75 Y-23.71 E59.64395
G1 X44.419 Y-23.591 E59.66472
G1 X45.069 Y-23.394 E59.68547
G1 X45.692 Y-23.122 E59.70624
G1 X46.278 Y-22.778 E59.72701
G1 X46.82 Y-22.368 E59.74777
G1 X47.259 Y-21.956 E59.76617
G1 X47.71 Y-21.448 E59.78693
G1 X48.098 Y-20.89 E59.8077
G1 X48.419 Y-20.291 E59.82847
G1 X48.667 Y-19.659 E59.84921
G1 X48.839 Y-19.001 E59.86999
G1 X48.932 Y-18.328 E59.89075
G1 X48.95 Y-17.872 E59.9047
G1 X48.95 Y17.872 E60.99696
G1 X48.91 Y18.55 E61.01771
G1 X48.791 Y19.219 E61.03847
G1 X48.594 Y19.869 E61.05923
G1 X48.322 Y20.492 E61.08
G1 X47.978 Y21.078 E61.10077
G1 X47.568 Y21.62 E61.12153
G1 X47.156 Y22.059 E61.13993
G1 X46.648 Y22.51 E61.16069
G1 X46.09 Y22.898 E61.18146
G1 X45.491 Y23.219 E61.20222
G1 X44.859 Y23.467 E61.22297
G1 X44.201 Y23.639 E61.24375
G1 X43.936 Y23.676 E61.25193
G0 F1620 X43.528 Y23.732
G0 X43.072 Y23.75
G0 F3600 X43.072 Y23.4
G1 F1800 X-43.072 Y23.4 E63.8843
G1 X-43.729 Y23.36 E63.90441
G1 X-44.377 Y23.241 E63.92454
G1 X-45.005 Y23.044 E63.94465
G1 X-45.605 Y22.772 E63.96478
G1 X-46.168 Y22.43 E63.98491
G1 X-46.908 Y21.811 E64.0144
G1 X-47.011 Y21.708 E64.01885
G1 X-47.448 Y21.215 E64.03898
G1 X-47.821 Y20.673 E64.05908
